icons/linear-ele-other-wind-power.svg

<svg xmlns="http://www.w3.org/2000/svg" width="32px" height="32px" viewBox="0 0 32 32" version="1.1">
    <title>linear-ele-other-wind-power</title>
    <g id="linear-ele-other-wind-power" stroke-width="1" fill-rule="evenodd">
        <path d="M4,2 C4.55228475,2 5,2.44771525 5,3 L5,29 C5,29.5522847 4.55228475,30 4,30 C3.44771525,30 3,29.5522847 3,29 L3,3 C3,2.44771525 3.44771525,2 4,2 Z M7.98293308,1.99990259 L8.09950372,2.00496281 L26.2985112,3.82486355 C27.8321165,3.97822409 29,5.26872078 29,6.80997512 L29,11.1900249 C29,12.7312792 27.8321165,14.0217759 26.2985112,14.1751364 L8.09950372,15.9950372 C7.5108179,16.0539058 7,15.5916219 7,15 L7,9 C7,8.44771525 7.44771525,8 8,8 C8.55228475,8 9,8.44771525 9,9 L9,13.894 L15,13.2939026 L15,4.70490259 L9,4.105 L9,5 C9,5.51283584 8.61395981,5.93550716 8.11662113,5.99327227 L8,6 C7.44771525,6 7,5.55228475 7,5 L7,3 C7,2.487261 7.383681,2.07166927 7.8692086,2.00828143 L7.98293308,1.99990259 Z M17,4.90490259 L17,13.0939026 L21,12.6939026 L21,5.30490259 L17,4.90490259 Z M23,5.50490259 L23,12.4949026 L26.0995037,12.1850621 C26.5713823,12.1378742 26.9393872,11.7677128 26.9932112,11.3069646 L27,11.1900249 L27,6.80997512 C27,6.29622368 26.6107055,5.86605811 26.0995037,5.81493793 L23,5.50490259 Z" id="&#24418;&#29366;" fill-rule="nonzero" />
    </g>
</svg>

<svg xmlns="http://www.w3.org/2000/svg" viewBox="0 0 32 32"><path fill="currentColor" d="M4 2a1 1 0 0 1 1 1v26a1 1 0 0 1-2 0V3a1 1 0 0 1 1-1m3.983 0 .117.005 18.199 1.82A3 3 0 0 1 29 6.81v4.38a3 3 0 0 1-2.701 2.985l-18.2 1.82A1 1 0 0 1 7 15V9a1 1 0 1 1 2 0v4.894l6-.6v-8.59l-6-.599V5a1 1 0 0 1-.883.993L8 6a1 1 0 0 1-1-1V3a1 1 0 0 1 .87-.992zM17 4.905v8.189l4-.4v-7.39zm6 .6v6.99l3.1-.31a1 1 0 0 0 .893-.878L27 11.19V6.81a1 1 0 0 0-.9-.995z"/></svg>
